public/build/assets/icon_cart-D2sJvqiS.svg

<svg width="30" height="28" viewBox="0 0 30 28" fill="none" xmlns="http://www.w3.org/2000/svg">
<path d="M29.7391 5.73178C29.5056 5.43274 29.1473 5.25797 28.7679 5.25797H5.31117L4.96249 1.3736C4.90546 0.738375 4.37309 0.251648 3.73535 0.251648H1.23207C0.551616 0.251648 0 0.803264 0 1.48372C0 2.16417 0.551616 2.71579 1.23207 2.71579H2.60894L3.95941 17.7611C3.9597 17.7788 3.95882 17.7962 3.95982 17.8141C3.96258 17.8614 3.96874 17.9076 3.9766 17.9531L4.026 18.5032C4.02694 18.5136 4.02799 18.524 4.02923 18.5342C4.17895 19.8314 4.84186 20.9554 5.80047 21.7147C5.30377 22.3491 5.00655 23.1467 5.00655 24.013C5.00655 26.0726 6.68223 27.7483 8.74184 27.7483C10.8015 27.7483 12.4772 26.0726 12.4772 24.013C12.4772 23.5668 12.3983 23.1388 12.2542 22.7418H18.9975C18.8533 23.1388 18.7745 23.5668 18.7745 24.013C18.7745 26.0726 20.4502 27.7483 22.5098 27.7483C24.5695 27.7483 26.2452 26.0726 26.2452 24.013C26.2452 21.9533 24.5695 20.2776 22.5098 20.2776H8.75017C7.81427 20.2776 6.99869 19.713 6.64667 18.8903L26.3368 17.7331C26.8744 17.7015 27.3292 17.3244 27.4598 16.802L29.9633 6.78878C30.0552 6.42081 29.9725 6.03088 29.7391 5.73178Z" fill="white"/>
</svg>

<svg width="30" height="28" fill="none" xmlns="http://www.w3.org/2000/svg"><path d="M29.74 5.732a1.232 1.232 0 0 0-.972-.474H5.31l-.349-3.884A1.232 1.232 0 0 0 3.735.252H1.232a1.232 1.232 0 1 0 0 2.464H2.61l1.35 15.045v.053c.004.047.01.094.018.14l.049.55.003.03a4.742 4.742 0 0 0 1.771 3.18 3.716 3.716 0 0 0-.793 2.299 3.74 3.74 0 0 0 3.735 3.735 3.74 3.74 0 0 0 3.512-5.006h6.743a3.74 3.74 0 0 0 3.512 5.006 3.74 3.74 0 0 0 3.736-3.735 3.74 3.74 0 0 0-3.735-3.735H8.75a2.288 2.288 0 0 1-2.103-1.388l19.69-1.157a1.232 1.232 0 0 0 1.123-.931l2.503-10.013a1.23 1.23 0 0 0-.224-1.057Z" fill="#fff"/></svg>
